!!!SOCIAL_FUNCTION:	initiation songs of the first and second degrees
!!!PDT:	1909
!!!OTL: No_8_Introductory_Song.krn
!!!REG: Great_Lakes
!!!LANG: Non-Tone
!!!LING_GROUP: Algonquin
**kern
*staff1
=1-
*clefF4
*k[b-e-a-d-]
*M3/4
4e-\
4e-\
4e-\
=2
4e-\
4e-\
4d-\
=3
2.c\
=4
4A-\
4A-\
4A-\
=5
2.A-\
=6
2.A-\
=7
4c\
4c\
4c\
=8
(8c\L
8A-\J)
4A-\
4A-\
=9
2.A-\
=10
4A-\
4F\
4F\
=11
2.F\
=12
2.F\
=13
4c\
4c\
4c\
=14
4A-\
4A-\
4c\
=15
2.A-\
=16
4A-\
4F\
4F\
=17
2.F\
=18
2.F\
=19
4F\
4E-\
4E-\
=20
4E-\
4C/
4C/
=21
2.C/
=22
4C/
4AA-/
4AA-/
=23
2.AA-/
=24
2.AA-/
==
*-
